svgs/testbook.svg

<svg width="192" height="192" viewBox="0 0 192 192" fill="none" xmlns="http://www.w3.org/2000/svg">
<path d="M30 36C30 34.4087 30.6321 32.8826 31.7574 31.7574C32.8826 30.6321 34.4087 30 36 30H156C157.591 30 159.117 30.6321 160.243 31.7574C161.368 32.8826 162 34.4087 162 36V156C162 157.591 161.368 159.117 160.243 160.243C159.117 161.368 157.591 162 156 162H36C34.4087 162 32.8826 161.368 31.7574 160.243C30.6321 159.117 30 157.591 30 156V36Z" stroke="black" stroke-width="12" stroke-linecap="round"/>
<path d="M95.507 50.7331C94.318 50.7331 93.1559 51.0863 92.168 51.748L58.355 74.398C57.5363 74.9466 56.8654 75.6884 56.4015 76.5578C55.9375 77.4272 55.6949 78.3975 55.695 79.383V131.583C55.695 136.093 60.486 138.991 64.481 136.897L92.721 122.091C93.5805 121.64 94.5365 121.405 95.507 121.405C96.4775 121.405 97.4335 121.64 98.293 122.091L126.533 136.897C130.528 138.991 135.319 136.093 135.319 131.583V79.383C135.319 78.3975 135.076 77.4271 134.612 76.5576C134.148 75.6882 133.477 74.9465 132.658 74.398L98.846 51.748C97.8582 51.0863 96.696 50.7331 95.507 50.7331ZM95.507 50.7331V120.631" stroke="black" stroke-width="12" stroke-linecap="round"/>
</svg>

<svg xmlns="http://www.w3.org/2000/svg" width="192" height="192" fill="none" stroke="#000" stroke-width="12" viewBox="0 0 192 192"><path d="M30 36a6 6 0 0 1 6-6h120a6.002 6.002 0 0 1 6 6v120a6.003 6.003 0 0 1-1.757 4.243A6.003 6.003 0 0 1 156 162H36a6 6 0 0 1-6-6V36Z"/><path stroke-linecap="round" d="M95.507 50.733a6 6 0 0 0-3.339 1.015l-33.813 22.65a6 6 0 0 0-2.66 4.985v52.2c0 4.51 4.791 7.408 8.786 5.314l28.24-14.806a5.995 5.995 0 0 1 5.572 0l28.24 14.806c3.995 2.094 8.786-.804 8.786-5.314v-52.2a6.002 6.002 0 0 0-2.661-4.985l-33.812-22.65a6 6 0 0 0-3.339-1.015Zv69.898"/></svg>
